assets/images/discord-icon.svg

<?xml version="1.0" encoding="UTF-8"?>
<svg width="24.091" height="23.946" preserveAspectRatio="none" version="1.1" viewBox="0 0 24.091 23.946" xmlns="http://www.w3.org/2000/svg" xmlns:xlink="http://www.w3.org/1999/xlink">
 <defs>
  <g id="Layer1_0_FILL">
   <path d="m18.85 1.2q-1.2-1.2-2.85-1.2h-12q-1.7 0-2.85 1.2-1.15 1.15-1.15 2.8v12q0 1.7 1.15 2.85t2.85 1.15h12q1.65 0 2.85-1.15 1.15-1.15 1.15-2.85v-12q0-1.65-1.15-2.8m-2.85 0.8q0.85 0 1.4 0.6 0.6 0.6 0.6 1.4v12q0 0.85-0.6 1.45-0.55 0.55-1.4 0.55h-12q-0.85 0-1.45-0.55-0.55-0.6-0.55-1.45v-12q0-0.85 0.55-1.4 0.6-0.6 1.45-0.6h12m-4.3 3.75h-0.1l-0.1 0.15q1.65 0.5 2.4 1.2-1.45-0.75-2.95-0.9-1.2-0.1-2 0.05h-0.25q-1.1 0.15-2.2 0.65l-0.15 0.05-0.4 0.2h-0.05q0.85-0.75 2.6-1.3h0.05l-0.1-0.1h-0.05q-1.35 0-2.75 1.05l-0.05 0.1q-1.4 2.5-1.4 5.7v0.05q1.05 1.4 3.05 1.5l0.65-0.85q-0.85-0.25-1.75-1.15h0.05l0.25 0.15h0.05l0.05 0.1 0.75 0.3q0.6 0.3 1.5 0.45 1.25 0.25 2.5 0h0.05q0.9-0.2 1.45-0.45 0.5-0.15 1.15-0.55-0.55 0.85-1.8 1.15l0.15 0.25 0.5 0.6q1.4-0.05 2.35-0.8 0.5-0.4 0.7-0.75 0-3.2-1.4-5.8-1.4-1.05-2.75-1.05m0.1 3.7q0.45 0 0.75 0.35 0.3 0.3 0.3 0.75 0 0.5-0.3 0.8-0.3 0.35-0.75 0.35-0.4 0-0.7-0.35-0.3-0.3-0.3-0.8 0-0.45 0.3-0.75 0.3-0.35 0.7-0.35m-4.65 1.1q0-0.45 0.3-0.75 0.3-0.35 0.7-0.35 0.45 0 0.75 0.35 0.3 0.3 0.3 0.75 0 0.5-0.3 0.8-0.3 0.35-0.75 0.35-0.4 0-0.7-0.35-0.3-0.3-0.3-0.8z" fill="#010101"/>
  </g>
 </defs>
 <g transform="matrix(.99388 0 0 1.0028 2.0329 1.9688)" stroke-width="1.0017">
  <use width="100%" height="100%" stroke-width="1.0017" xlink:href="#Layer1_0_FILL"/>
 </g>
</svg>

<svg xmlns="http://www.w3.org/2000/svg" version="1.1" xmlns:xlink="http://www.w3.org/1999/xlink" preserveAspectRatio="none" x="0px" y="0px" width="20px" height="20px" viewBox="0 0 20 20">
<defs>
<g id="Layer1_0_FILL">
<path fill="#010101" stroke="none" d="
M 18.85 1.2
Q 17.65 0 16 0
L 4 0
Q 2.3 0 1.15 1.2 0 2.35 0 4
L 0 16
Q 0 17.7 1.15 18.85 2.3 20 4 20
L 16 20
Q 17.65 20 18.85 18.85 20 17.7 20 16
L 20 4
Q 20 2.35 18.85 1.2
M 16 2
Q 16.85 2 17.4 2.6 18 3.2 18 4
L 18 16
Q 18 16.85 17.4 17.45 16.85 18 16 18
L 4 18
Q 3.15 18 2.55 17.45 2 16.85 2 16
L 2 4
Q 2 3.15 2.55 2.6 3.15 2 4 2
L 16 2
M 11.7 5.75
L 11.6 5.75 11.5 5.9
Q 13.15 6.4 13.9 7.1 12.45 6.35 10.95 6.2 9.75 6.1 8.95 6.25
L 8.7 6.25
Q 7.6 6.4 6.5 6.9
L 6.35 6.95 5.95 7.15 5.9 7.15
Q 6.75 6.4 8.5 5.85
L 8.55 5.85 8.45 5.75 8.4 5.75
Q 7.05 5.75 5.65 6.8
L 5.6 6.9
Q 4.2 9.4 4.2 12.6
L 4.2 12.65
Q 5.25 14.05 7.25 14.15
L 7.9 13.3
Q 7.05 13.05 6.15 12.15
L 6.2 12.15 6.45 12.3 6.5 12.3 6.55 12.4 7.3 12.7
Q 7.9 13 8.8 13.15 10.05 13.4 11.3 13.15
L 11.35 13.15
Q 12.25 12.95 12.8 12.7 13.3 12.55 13.95 12.15 13.4 13 12.15 13.3
L 12.3 13.55 12.8 14.15
Q 14.2 14.1 15.15 13.35 15.65 12.95 15.85 12.6 15.85 9.4 14.45 6.8 13.05 5.75 11.7 5.75
M 11.8 9.45
Q 12.25 9.45 12.55 9.8 12.85 10.1 12.85 10.55 12.85 11.05 12.55 11.35 12.25 11.7 11.8 11.7 11.4 11.7 11.1 11.35 10.8 11.05 10.8 10.55 10.8 10.1 11.1 9.8 11.4 9.45 11.8 9.45
M 7.15 10.55
Q 7.15 10.1 7.45 9.8 7.75 9.45 8.15 9.45 8.6 9.45 8.9 9.8 9.2 10.1 9.2 10.55 9.2 11.05 8.9 11.35 8.6 11.7 8.15 11.7 7.75 11.7 7.45 11.35 7.15 11.05 7.15 10.55 Z"/>
</g>
</defs>

<g transform="matrix( 1, 0, 0, 1, 0,0) ">
<use xlink:href="#Layer1_0_FILL"/>
</g>
</svg>
